public/svgs/regular/square-8.svg

<svg xmlns="http://www.w3.org/2000/svg" viewBox="0 0 448 512"><!-- Font Awesome Pro 6.0.0-alpha2 by @fontawesome - https://fontawesome.com License - https://fontawesome.com/license (Commercial License) --><path d="M384 32H64C28.654 32 0 60.654 0 96V416C0 451.346 28.654 480 64 480H384C419.346 480 448 451.346 448 416V96C448 60.654 419.346 32 384 32ZM400 416C400 424.822 392.822 432 384 432H64C55.178 432 48 424.822 48 416V96C48 87.178 55.178 80 64 80H384C392.822 80 400 87.178 400 96V416ZM304 200C304 160.312 271.688 128 232 128H216C176.312 128 144 160.312 144 200C144 215.773 149.254 230.258 157.896 242.135C139.811 256.812 128 278.938 128 304C128 348.125 163.875 384 208 384H240C284.125 384 320 348.125 320 304C320 278.938 308.189 256.812 290.104 242.135C298.746 230.258 304 215.773 304 200ZM216 176H232C245.219 176 256 186.781 256 200S245.219 224 232 224H216C202.781 224 192 213.219 192 200S202.781 176 216 176ZM240 336H208C190.344 336 176 321.656 176 304S190.344 272 208 272H240C257.656 272 272 286.344 272 304S257.656 336 240 336Z"/></svg>

<svg xmlns="http://www.w3.org/2000/svg" viewBox="0 0 448 512"><!--! Font Awesome Pro 6.5.1 by @fontawesome - https://fontawesome.com License - https://fontawesome.com/license (Commercial License) Copyright 2023 Fonticons, Inc. --><path d="M384 80c8.8 0 16 7.2 16 16V416c0 8.8-7.2 16-16 16H64c-8.8 0-16-7.2-16-16V96c0-8.8 7.2-16 16-16H384zM64 32C28.7 32 0 60.7 0 96V416c0 35.3 28.7 64 64 64H384c35.3 0 64-28.7 64-64V96c0-35.3-28.7-64-64-64H64zm168 96H216c-39.8 0-72 32.2-72 72c0 15.7 5 30.1 13.5 42c-18 14.7-29.5 37-29.5 62c0 44.2 35.8 80 80 80h32c44.2 0 80-35.8 80-80c0-25-11.5-47.4-29.5-62c8.5-11.8 13.5-26.3 13.5-42c0-39.8-32.2-72-72-72zm-16 96c-13.2 0-24-10.8-24-24s10.7-24 24-24h16c13.3 0 24 10.7 24 24s-10.7 24-24 24c0 0 0 0 0 0H216s0 0 0 0zm0 48c0 0 0 0 0 0h16c0 0 0 0 0 0h8c17.7 0 32 14.3 32 32s-14.3 32-32 32H208c-17.7 0-32-14.3-32-32s14.3-32 32-32h8z"/></svg>
